arch_logo.svg

<?xml version="1.0" encoding="UTF-8" standalone="no"?>
<svg
   xmlns:dc="http://purl.org/dc/elements/1.1/"
   xmlns:cc="http://creativecommons.org/ns#"
   xmlns:rdf="http://www.w3.org/1999/02/22-rdf-syntax-ns#"
   xmlns:svg="http://www.w3.org/2000/svg"
   xmlns="http://www.w3.org/2000/svg"
   xmlns:sodipodi="http://sodipodi.sourceforge.net/DTD/sodipodi-0.dtd"
   xmlns:inkscape="http://www.inkscape.org/namespaces/inkscape"
   inkscape:version="1.0 (4035a4fb49, 2020-05-01)"
   sodipodi:docname="arch_logo.svg"
   id="svg101"
   height="65px"
   version="1.1"
   viewBox="0 0 65 65"
   width="65px">
  <metadata
     id="metadata105">
    <rdf:RDF>
      <cc:Work
         rdf:about="">
        <dc:format>image/svg+xml</dc:format>
        <dc:type
           rdf:resource="http://purl.org/dc/dcmitype/StillImage" />
        <dc:title />
      </cc:Work>
    </rdf:RDF>
  </metadata>
  <sodipodi:namedview
     inkscape:document-rotation="0"
     inkscape:current-layer="svg101"
     inkscape:window-maximized="1"
     inkscape:window-y="25"
     inkscape:window-x="1920"
     inkscape:cy="26.366218"
     inkscape:cx="31.339056"
     inkscape:zoom="13.663479"
     showgrid="false"
     id="namedview103"
     inkscape:window-height="1148"
     inkscape:window-width="1920"
     inkscape:pageshadow="2"
     inkscape:pageopacity="0"
     guidetolerance="10"
     gridtolerance="10"
     objecttolerance="10"
     borderopacity="1"
     bordercolor="#666666"
     pagecolor="#ffffff" />
  <defs
     id="defs94">
    <linearGradient
       y2="79.519%"
       x1="54.638%"
       x2="28.129%"
       y1="26.924%"
       id="lg">
      <stop
         id="stop89"
         offset="0"
         stop-opacity="0"
         stop-color="#fff" />
      <stop
         id="stop91"
         offset="1"
         stop-opacity=".27451"
         stop-color="#fff" />
    </linearGradient>
  </defs>
  <path
     d="M 32.253906 0.20898438 C 29.404906 7.1932844 27.674906 11.769875 24.503906 18.546875 C 26.447906 20.607875 28.837844 22.997984 32.714844 25.708984 C 28.546844 23.993984 25.704078 22.277234 23.580078 20.490234 C 19.521078 28.960234 13.158906 41.020984 0.25390625 64.208984 C 10.393906 58.354984 18.254078 54.743234 25.580078 53.365234 C 25.266078 52.014234 25.099328 50.546484 25.111328 49.021484 L 25.119141 48.701172 C 25.280141 42.203172 28.662969 37.207875 32.667969 37.546875 C 36.671969 37.885875 39.789906 43.430688 39.628906 49.929688 C 39.597906 51.153687 39.455844 52.329875 39.214844 53.421875 C 46.461844 54.839875 54.248906 58.432984 64.253906 64.208984 C 62.280906 60.576984 60.512078 57.304547 58.830078 54.185547 C 56.181078 52.132547 53.419203 49.461359 47.783203 46.568359 C 51.657203 47.575359 54.433703 48.739109 56.595703 50.037109 C 39.497703 18.202109 38.116906 13.968984 32.253906 0.20898438 z M 32.445312 9.546875 A 2.4781468 2.4781468 0 0 1 32.5 9.546875 A 2.4781468 2.4781468 0 0 1 34.978516 12.025391 A 2.4781468 2.4781468 0 0 1 32.5 14.501953 A 2.4781468 2.4781468 0 0 1 30.021484 12.025391 A 2.4781468 2.4781468 0 0 1 32.445312 9.546875 z "
     id="path96" />
</svg>

<?xml version="1.0" encoding="UTF-8" standalone="no"?>
<svg
   xmlns:dc="http://purl.org/dc/elements/1.1/"
   xmlns:cc="http://creativecommons.org/ns#"
   xmlns:rdf="http://www.w3.org/1999/02/22-rdf-syntax-ns#"
   xmlns:svg="http://www.w3.org/2000/svg"
   xmlns="http://www.w3.org/2000/svg"
   xmlns:sodipodi="http://sodipodi.sourceforge.net/DTD/sodipodi-0.dtd"
   xmlns:inkscape="http://www.inkscape.org/namespaces/inkscape"
   width="65px"
   viewBox="0 0 65 65"
   version="1.1"
   height="65px"
   id="svg101"
   sodipodi:docname="arch_logo.svg"
   inkscape:version="0.92.4 5da689c313, 2019-01-14">
  <metadata
     id="metadata105">
    <rdf:RDF>
      <cc:Work
         rdf:about="">
        <dc:format>image/svg+xml</dc:format>
        <dc:type
           rdf:resource="http://purl.org/dc/dcmitype/StillImage" />
        <dc:title></dc:title>
      </cc:Work>
    </rdf:RDF>
  </metadata>
  <sodipodi:namedview
     pagecolor="#ffffff"
     bordercolor="#666666"
     borderopacity="1"
     objecttolerance="10"
     gridtolerance="10"
     guidetolerance="10"
     inkscape:pageopacity="0"
     inkscape:pageshadow="2"
     inkscape:window-width="2560"
     inkscape:window-height="1415"
     id="namedview103"
     showgrid="false"
     inkscape:zoom="19.323077"
     inkscape:cx="32.5"
     inkscape:cy="32.5"
     inkscape:window-x="3840"
     inkscape:window-y="176"
     inkscape:window-maximized="1"
     inkscape:current-layer="svg101" />
  <defs
     id="defs94">
    <linearGradient
       id="lg"
       y1="26.924%"
       x2="28.129%"
       x1="54.638%"
       y2="79.519%">
      <stop
         stop-color="#fff"
         stop-opacity="0"
         offset="0"
         id="stop89" />
      <stop
         stop-color="#fff"
         stop-opacity=".27451"
         offset="1"
         id="stop91" />
    </linearGradient>
  </defs>
  <path
     d="m32.253 0.20991c-2.849 6.9843-4.579 11.559-7.75 18.336 1.944 2.061 4.334 4.453 8.211 7.164-4.168-1.715-7.009-3.432-9.133-5.219-4.059 8.47-10.423 20.531-23.328 43.719 10.14-5.854 18.002-9.466 25.328-10.844-0.314-1.351-0.481-2.819-0.469-4.344l0.008-0.32c0.161-6.498 3.542-11.495 7.547-11.156 4.004 0.339 7.122 5.884 6.961 12.383-0.031 1.224-0.173 2.4-0.414 3.492 7.247 1.418 15.034 5.013 25.039 10.789-1.973-3.632-3.74-6.905-5.422-10.024-2.649-2.053-5.411-4.724-11.047-7.617 3.874 1.007 6.65 2.171 8.812 3.469-17.098-31.835-18.48-36.068-24.343-49.828v-0.00009z"
     fill="#1793D1"
     id="path96" />
  <path
     id="path2522"
     fill-opacity=".16568"
     fill="#fff"
     d="m50.266 38.249c-13.872-18.827-17.087-34.002-17.902-37.625 7.4 17.067 7.349 17.277 17.902 37.625z" />
  <path
     d="m32.378 0.45992c-0.36 0.88448-0.7 1.7468-1.032 2.5625-0.364 0.8946-0.718 1.7565-1.062 2.5938s-0.693 1.6309-1.031 2.4375c-0.339 0.8065-0.654 1.6039-1 2.4063-0.346 0.802-0.726 1.613-1.094 2.437-0.368 0.825-0.752 1.658-1.156 2.532-0.404 0.873-0.828 1.801-1.282 2.75-0.061 0.128-0.124 0.276-0.187 0.406 1.939 2.054 4.33 4.427 8.187 7.125-4.167-1.715-7-3.432-9.125-5.219-0.11 0.226-0.198 0.425-0.312 0.656-0.42 0.871-0.871 1.733-1.344 2.688-0.113 0.224-0.196 0.427-0.312 0.656-0.501 1.004-1.026 2.043-1.594 3.156-0.113 0.22-0.228 0.402-0.344 0.625-0.343 0.667-1.44 2.77-2.562 4.907-0.655 1.248-1.169 2.27-1.907 3.656-0.209 0.398-0.639 1.195-0.75 1.406 8.125-4.573 16.891-11.216 32.813-5.531-0.797-1.51-1.562-2.919-2.25-4.25-0.688-1.332-1.312-2.571-1.906-3.75s-1.143-2.291-1.657-3.344c-0.513-1.053-0.989-2.047-1.437-3s-0.885-1.87-1.281-2.75c-0.397-0.879-0.766-1.73-1.125-2.562-0.359-0.833-0.695-1.658-1.032-2.469-0.336-0.8115-0.672-1.5896-1-2.4063-0.142-0.3554-0.263-0.7338-0.406-1.0938-0.888-2.0849-1.759-4.1515-2.812-6.625v0.00002z"
     fill="url(#lg)"
     id="path99" />
</svg>
